src/assets/icons/drawer/icon-members.svg

<svg xmlns="http://www.w3.org/2000/svg" width="48" height="48" fill="#ff4aa1" xmlns:v="https://vecta.io/nano"><path opacity=".35" d="M34 30H14v8h20v-8zm-10-6a10 10 0 1 0 0-20 10 10 0 1 0 0 20z"/><path d="M41.886 34.812c-.546-2.85-3.2-4.812-6.102-4.812h-3.83c-1.826 2.416-4.694 4-7.954 4s-6.13-1.584-7.954-4h-2.044c-4.688 0-7.342 1.962-7.888 4.812C5.378 38.646 8.298 42 12 42h24c3.702 0 6.622-3.354 5.886-7.188z"/></svg>

<svg width="48" height="48" viewBox="0 0 48 48" fill="none" xmlns="http://www.w3.org/2000/svg">
<path opacity="0.35" d="M34 30H14V38H34V30Z" fill="#FF4AA1"/>
<path opacity="0.35" d="M24 24C29.5229 24 34 19.5229 34 14C34 8.47715 29.5229 4 24 4C18.4772 4 14 8.47715 14 14C14 19.5229 18.4772 24 24 24Z" fill="#FF4AA1"/>
<path d="M41.886 34.812C41.34 31.962 38.686 30 35.784 30H31.954C30.128 32.416 27.26 34 24 34C20.74 34 17.87 32.416 16.046 30H14.002C9.314 30 6.66 31.962 6.114 34.812C5.378 38.646 8.298 42 12 42H36C39.702 42 42.622 38.646 41.886 34.812Z" fill="#FF4AA1"/>
</svg>
